!!!!SEGMENT: pl-kk--kk-i-1--003-002_anonim--missa-et-in-terra.krn
!!!cenid: 15xx:664
!!!COM: Anonim
!!!COM-rismID: pe30004985
!!!CDT:
!!!CNT:
!!!OPR: [Missa]
!!!OTL: Et in terra
!!!OMV: 002
!!!PDT:
!!!AGN:
!!!SMS-siglum: PL-Kk
!!!SMS-shelfmark: Kk.I.1
!!!SMS-shelfwork: 003-002 M
!!!SMS-variant:
!!!SMS-altvar:
!!!NIFC-rismSourceID: 300257954
!!!NIFC-rismChildID: 300257957
!!!NIFC-islandoraID: pl-kk:1
!!!URL-pdf-islandora: https://repozytorium.nifc.pl/islandora/object/pl-kk%3A1/datastream/PDF/view
!!!URL-scan: https://polish.musicsources.pl/pl/lokalizacje/galeria/rekopisy/5736 @EN{Scan on Polish Music Sources Website} @PL{Skany w portalu Dziedzictwo Muzyki Polskiej w otwartym dostępie}
!!!IIIF: https://repozytorium.nifc.pl/islandora/object/pl-kk%3A1/datastream/IIIF/view
!!!ONB-nifc: UWAGA: Cantus (s. 12r-21r, skan 0014-0023), Altus (s. 12v-20v, skan 0205-0213), Tenor (s. 12v-21v, skan 0401-0410), Bassus (s. 12v-20v, skan 0574-0582). Części Mszy: 1. Kyrie, 2. Et in terra, 3. Patrem, 4. Sanctus, 5. Agnus Dei
!!!AIN: 3 empty 1 tenor
!!!key:
**kern	**text	**kern	**text	**kern	**text	**kern	**text
*part4	*part4	*part3	*part3	*part2	*part2	*part1	*part1
*staff4	*staff4	*staff3	*staff3	*staff2	*staff2	*staff1	*staff1
*Iempty	*	*Itenor	*	*Iempty	*	*Iempty	*
*I"BASSVS	*	*I"TENOR	*	*I"ALTVS	*	*I"CANTVS	*
*I'B	*	*I'T	*	*I'A	*	*I'C	*
*clefF3	*	*clefC4	*	*clefC3	*	*clefC3	*
*k[b-]	*	*k[b-]	*	*k[b-]	*	*k[b-]	*
*F:	*	*F:	*	*F:	*	*F:	*
*M2/1	*	*M2/1	*	*M2/1	*	*M2/1	*
*met(C|)	*	*met(C|)	*	*met(C|)	*	*met(C|)	*
=1-	=1-	=1-	=1-	=1-	=1-	=1-	=1-
*xywh-#574:5622,2779,4395,898	*	*xywh-#401:5670,2714,4316,1059	*	*xywh-#205:7809,2882,2459,920	*	*xywh-#15:5596,1418,4305,858	*
!	!	!LO:TX:t=P:problem=kreska pseudotaktowa	!	!	!	!	!
1.c\	Et	1r	.	0r	.	0r	.
.	.	1.c\	Et	.	.	.	.
*2\right	*	*	*	*	*	*	*
2c\	in	.	.	.	.	.	.
=2-	=2-	=2-	=2-	=2-	=2-	=2-	=2-
!	!	!	!	!LO:TX:t=P:problem=kreska pseudotaktowa	!	!LO:TX:t=P:problem=kreska pseudotaktowa	!
2.A\	ter-	.	.	1r	.	1.c\	Et
!	!	!LO:TX:t=P:problem=kreska pseudotaktowa	!	!	!	!	!
.	.	2c\	in	.	.	.	.
!LO:TX:t=P:problem=kreska pseudotaktowa	!	!	!	!	!	!	!
4G\	-ra-	.	.	.	.	.	.
!LO:TX:t=P:problem=kreska pseudotaktowa	!	!	!	!	!	!	!
1F\	-pax	2.A/	ter-	1.c\	Et	.	.
.	.	.	.	.	.	2c/	in
.	.	4G/	-ra	.	.	.	.
=3-	=3-	=3-	=3-	=3-	=3-	=3-	=3-
1r	.	2F/	pax	.	.	2.A/	ter-
!	!	!	!	!LO:TX:t=P:problem=kreska pseudotaktowa	!	!	!
.	.	1c\	.	2c/	in	.	.
.	.	.	.	.	.	4G/	-ra
!	!	!	!	!	!	!LO:TX:t=P:problem=kreska pseudotaktowa	!
2r	.	.	.	2.A/	ter-	1F/	pax,
*	*	*2\right	*	*	*	*	*
!	!	!LO:TX:t=P:problem=kreska pseudotaktowa	!	!	!	!	!
*	*ij	*	*	*	*	*	*
1F\	et	2c\	.	.	.	.	.
!	!	!	!	!LO:TX:t=P:problem=kreska pseudotaktowa	!	!	!
.	.	.	.	4G/	-ra	.	.
=4-	=4-	=4-	=4-	=4-	=4-	=4-	=4-
*	*	*	*	*custos:A	*	*	*
.	.	2.A/	.	2F/	pax	2r	.
*	*	*	*	*xywh-#206:1345,561,4221,879	*	*	*
!	!	!	!	!LO:PB:g=original	!	!	!
!LO:TX:t=P:problem=kreska pseudotaktowa	!	!	!	!LO:TX:t=P:problem=kreska pseudotaktowa	!	!	!
2F/	in	.	.	2A/	ho-	1f\	et
.	.	4G/	.	.	.	.	.
!	!	!LO:TX:t=P:problem=kreska pseudotaktowa	!	!	!	!	!
2.D/	ter-	1F/	.	2A/	-mi-	.	.
*	*	*	*	*	*	*2\right	*
!	!	!	!	!LO:TX:t=P:problem=kreska pseudotaktowa	!	!LO:TX:t=P:problem=kreska pseudotaktowa	!
.	.	.	.	2A/	-ni-	2f\	in
4C/	-ra	.	.	.	.	.	.
=5-	=5-	=5-	=5-	=5-	=5-	=5-	=5-
!LO:TX:t=P:problem=kreska pseudotaktowa	!	!	!	!	!	!	!
1BB-/	pax	2r	.	2.B-/	-bus	2.d\	ter-
*	*Xij	*	*	*	*	*	*
.	.	2G/	ho-	.	.	.	.
.	.	.	.	4c/	.	4c\	-ra
!	!	!	!	!LO:TX:t=P:problem=kreska pseudotaktowa	!	!	!
2r	.	2G/	-mi-	1d\	.	2B-/	pax
!	!	!LO:TX:t=P:problem=kreska pseudotaktowa	!	!	!	!LO:TX:t=P:problem=kreska pseudotaktowa	!
2BB-/	ho-	2G/	-ni-	.	.	2d/	ho-
=6-	=6-	=6-	=6-	=6-	=6-	=6-	=6-
2BB-/	-mi-	2F/	-bus	2r	.	2d/	-mi-
2BB-/	-ni-	2D/	bo-	2B-/	bo-	2d/	-(ni)-
*custos:C	*	*custos:C	*	*	*	*	*
!LO:TX:t=P:problem=kreska pseudotaktowa	!	!LO:TX:t=P:problem=kreska pseudotaktowa	!	!	!	!LO:TX:t=P:problem=kreska pseudotaktowa	!
1C/	-bus,	1E/	-ne	2G/	-ne	1c\	-bus
!	!	!	!	!LO:TX:t=P:problem=kreska pseudotaktowa	!	!	!
.	.	.	.	2G/	vo-	.	.
!	!	!LO:PB:g=original	!	!	!	!	!
=7-	=7-	=7-	=7-	=7-	=7-	=7-	=7-
*	*	*xywh-#402:1023,513,4305,906	*	*	*	*	*
2r	.	2.C/	uo-	2.c/	-lun-	2r	.
*	*	*	*	*	*	*custos:c	*
!	!	!	!	!	!	!LO:TX:t=P:problem=kreska pseudotaktowa	!
2C/	bo-	.	.	.	.	2F/	bo-
.	.	4D/	-lun-	8B-/L	-ta-	.	.
.	.	.	.	8A/J	.	.	.
*xywh-#575:963,580,4347,896	*	*	*	*	*	*xywh-#15:5681,2153,4294,830	*
!LO:PB:g=original	!	!	!	!	!	!LO:LB:g=original	!
!	!	!	!	!LO:TX:t=P:problem=kreska pseudotaktowa	!	!	!
2C/	-ne	4E/	.	2G/	-tis,	2.c\	-ne
.	.	4F/	-ta-	.	.	.	.
*	*	*	*	*2\right	*	*	*
!LO:TX:t=P:problem=kreska pseudotaktowa	!	!LO:TX:t=P:problem=kreska pseudotaktowa	!	!	!	!	!
2C/	uo-	2G/	-tis;	2.g\	.	.	.
!	!	!	!	!	!	!LO:TX:t=P:problem=kreska pseudotaktowa	!
.	.	.	.	.	.	4d\	.
=8-	=8-	=8-	=8-	=8-	=8-	=8-	=8-
2.C/	-lun-	2C/	.	.	.	4e\	.
.	.	.	.	4f\	.	4f\	.
.	.	2.c\	.	4e\	.	1g\	.
!	!	!	!	!LO:TX:t=P:problem=kreska pseudotaktowa	!	!	!
4D/	.	.	.	4d\	.	.	.
4E/	-ta-	.	.	0c\	.	.	.
4C/	-tis,	4B-\	.	.	.	.	.
!	!	!LO:TX:t=P:problem=kreska pseudotaktowa	!	!	!	!	!
2F/	.	2A/	.	.	.	2.f\	vo-
=9-	=9-	=9-	=9-	=9-	=9-	=9-	=9-
*lig	*	*	*	*	*	*	*
1C/	.	1G/	.	.	.	.	.
.	.	.	.	.	.	4e\	-lun-
!	!	!	!	!	!	!LO:TX:t=P:problem=kreska pseudotaktowa	!
.	.	.	.	.	.	2e\	-ta-
*col	*	*	*	*	*	*	*
!	!	!LO:TX:t=P:problem=kreska pseudotaktowa	!	!	!	!	!
2.D/	.	1F/	.	2A/	.	2.f\	-tis,
.	.	.	.	2.F/	.	.	.
*Xlig	*	*	*	*	*	*	*
4E/	.	.	.	.	.	8e\L	.
.	.	.	.	.	.	8d\J	.
*Xcol	*	*	*	*	*	*	*
=10-	=10-	=10-	=10-	=10-	=10-	=10-	=10-
2.F/	.	2r	.	.	.	0c\	.
*	*	*	*	*custos:A	*	*	*
.	.	.	.	4G/	.	.	.
*	*	*	*	*xywh-#206:1362,1350,4221,828	*	*	*
!	!	!	!	!LO:LB:g=original	!	!	!
!	!	!	!	!LO:TX:t=P:problem=kreska pseudotaktowa	!	!	!
.	.	2.F/	lau-	2A/	.	.	.
4E/	.	.	.	.	.	.	.
!LO:TX:t=P:problem=kreska pseudotaktowa	!	!	!	!	!	!	!
1C/	.	.	.	1G/	.	.	.
.	.	4E/	.	.	.	.	.
!	!	!LO:TX:t=P:problem=kreska pseudotaktowa	!	!	!	!	!
.	.	2E/	-da-	.	.	.	.
=11-	=11-	=11-	=11-	=11-	=11-	=11-	=11-
!	!	!	!	!LO:TX:t=P:problem=kreska pseudotaktowa	!	!LO:TX:t=P:problem=kreska pseudotaktowa	!
2r	.	1D/	-mus	1F/	.	1A/	.
2.F/	lau-	.	.	.	.	.	.
!	!	!LO:TX:t=P:problem=kreska pseudotaktowa	!	!	!	!	!
.	.	1C/	te,	2r	.	1r	.
4E/	.	.	.	.	.	.	.
2E/	-da-	.	.	2.c/	lau-	.	.
=12-	=12-	=12-	=12-	=12-	=12-	=12-	=12-
1D/	.	1r	.	.	.	2r	.
.	.	.	.	4B-/	-da-	.	.
!	!	!	!	!LO:TX:t=P:problem=kreska pseudotaktowa	!	!	!
.	.	.	.	2B-/	-mus	2.f\	lau-
2C/	-mus	2r	.	2A/	.	.	.
.	.	.	.	.	.	4e\	.
!LO:TX:t=P:problem=kreska pseudotaktowa	!	!LO:TX:t=P:problem=kreska pseudotaktowa	!	!	!	!	!
2C/	te	2c\	be-	2G/	te,	2e\	-da-
=13-	=13-	=13-	=13-	=13-	=13-	=13-	=13-
!	!	!	!	!LO:TX:t=P:problem=kreska pseudotaktowa	!	!	!
2.D/	be-	2B-\	-ne-	1F/	.	1d\	-mus
.	.	2A/	-di-	.	.	.	.
4E/	-ne-	.	.	.	.	.	.
*custos:C	*	*	*	*	*	*	*
!	!	!	!	!	!	!LO:TX:t=P:problem=kreska pseudotaktowa	!
2F/	.	2A/	-ci-	2r	.	1c\	te,
*xywh-#575:952,1415,4307,812	*	*	*	*	*	*	*
!LO:LB:g=original	!	!	!	!LO:TX:t=P:problem=kreska pseudotaktowa	!	!	!
2C/	-dici-	2G/	-mus	2.c/	be-	.	.
=14-	=14-	=14-	=14-	=14-	=14-	=14-	=14-
*	*	*custos:c	*	*	*	*	*
!	!	!LO:TX:t=P:problem=kreska pseudotaktowa	!	!	!	!	!
1D/	-mus	1F/	te,	.	.	2r	.
.	.	.	.	4B-/	-ne-	.	.
!	!	!	!	!LO:TX:t=P:problem=kreska pseudotaktowa	!	!	!
.	.	.	.	2B-/	-di-	2.f\	be-
*	*	*xywh-#402:1017,1307,4277,894	*	*	*	*	*
!	!	!LO:LB:g=original	!	!	!	!	!
!LO:TX:t=P:problem=kreska pseudotaktowa	!	!	!	!	!	!	!
1C/	te,	2.c\	a-	2A/	.	.	.
*	*	*	*	*	*	*custos:e	*
.	.	.	.	.	.	4e\	-ne-
*	*	*	*	*	*	*xywh-#15:5647,2820,4260,1039	*
!	!	!	!	!	!	!LO:LB:g=original	!
!	!	!	!	!LO:TX:t=P:problem=kreska pseudotaktowa	!	!LO:TX:t=P:problem=kreska pseudotaktowa	!
.	.	.	.	2G/	-ci-	2e\	-di-
.	.	4B-\	-do-	.	.	.	.
=15-	=15-	=15-	=15-	=15-	=15-	=15-	=15-
2r	.	2.A/	-ra-	2.F/	-mus	2d\	-ci-
1F\	a-	.	.	.	.	2c\	-mus
!	!	!LO:TX:t=P:problem=kreska pseudotaktowa	!	!LO:TX:t=P:problem=kreska pseudotaktowa	!	!	!
.	.	4G/	-mus	4G/	te,	.	.
.	.	2F/	.	4A/	.	2d\	.
.	.	.	.	4B-/	.	.	.
!LO:TX:t=P:problem=kreska pseudotaktowa	!	!	!	!	!	!	!
2E/	-do-	2C/	te,	2c/	.	2e\	te,
=16-	=16-	=16-	=16-	=16-	=16-	=16-	=16-
!	!	!	!	!	!	!LO:TX:t=P:problem=kreska pseudotaktowa	!
*	*	*	*ij	*	*	*	*
2.D/	-ra-	2.F/	a-	2d\	.	1f\	.
*	*	*	*	*custos:e	*	*	*
.	.	.	.	1f\	a-	.	.
!	!	!LO:TX:t=P:problem=kreska pseudotaktowa	!	!	!	!	!
4E/	-mus	4G/	.	.	.	.	.
2F/	.	2A/	.	.	.	2r	.
*	*	*	*	*xywh-#206:1350,2087,4238,885	*	*	*
!	!	!	!	!LO:LB:g=original	!	!	!
!LO:TX:t=P:problem=kreska pseudotaktowa	!	!	!	!LO:TX:t=P:problem=kreska pseudotaktowa	!	!	!
2C/	te,	2G/	-do-	2e\	-do-	2c/	a-
=17-	=17-	=17-	=17-	=17-	=17-	=17-	=17-
!	!	!LO:TX:t=P:problem=kreska pseudotaktowa	!	!	!	!	!
0D/	.	0F/	-ra-	2.d\	-ra-	2.f\	-do-
!	!	!	!	!	!	!LO:TX:t=P:problem=kreska pseudotaktowa	!
.	.	.	.	8c/L	-mus	4e\	-ra-
.	.	.	.	8B-/J	.	.	.
.	.	.	.	2.A/	te,	2d\	-mus
.	.	.	.	.	.	2d\	te,
.	.	.	.	4B-/	.	.	.
=18-	=18-	=18-	=18-	=18-	=18-	=18-	=18-
!LO:TX:t=P:problem=kreska pseudotaktowa	!	!	!	!LO:TX:t=P:problem=kreska pseudotaktowa	!	!LO:TX:t=P:problem=kreska pseudotaktowa	!
1C/	.	1G/	-mus	0.c\	.	0e\	.
2r	.	2A/	te	.	.	.	.
*	*	*	*Xij	*	*	*	*
1C/	glo-	2.G/	.	.	.	.	.
=19-	=19-	=19-	=19-	=19-	=19-	=19-	=19-
.	.	.	.	.	.	2r	.
.	.	4F/	.	.	.	.	.
!LO:TX:t=P:problem=kreska pseudotaktowa	!	!	!	!	!	!	!
2C/	-ri-	4E/	.	.	.	1c\	glo-
.	.	4D/	.	.	.	.	.
!	!	!LO:TX:t=P:problem=kreska pseudotaktowa	!	!	!	!	!
1AA/	-fi-	1C/	.	2r	.	.	.
!	!	!	!	!	!	!LO:TX:t=P:problem=kreska pseudotaktowa	!
.	.	.	.	1c\	glo-	2c/	-ri
=20-	=20-	=20-	=20-	=20-	=20-	=20-	=20-
1.C/	-ca-	2r	.	.	.	2A/	fi-
!	!	!	!	!LO:TX:t=P:problem=kreska pseudotaktowa	!	!	!
.	.	1c\	glo-	2c/	-ri-	2G/	-ca-
.	.	.	.	2A/	-fi-	2.c\	.
!	!	!LO:TX:t=P:problem=kreska pseudotaktowa	!	!	!	!	!
2C/	-mus	2c\	-ri-	2G/	-ca-	.	.
!	!	!	!	!	!	!LO:TX:t=P:problem=kreska pseudotaktowa	!
.	.	.	.	.	.	4d\	.
=21-	=21-	=21-	=21-	=21-	=21-	=21-	=21-
!LO:TX:t=P:problem=kreska pseudotaktowa	!	!	!	!	!	!	!
0.C/	te,	2A/	-fi-	2.c\	-mus	4e\	.
*	*	*	*	*	*	*custos:g	*
.	.	.	.	.	.	4f\	.
*	*	*custos:c	*	*	*	*	*
*	*	*	*	*	*	*xywh-#16:984,629,4363,949	*
!	!	!	!	!	!	!LO:PB:g=original	!
!	!	!LO:TX:t=P:problem=kreska pseudotaktowa	!	!	!	!	!
.	.	2G/	-ca-	.	.	2.g\	.
!	!	!	!	!LO:TX:t=P:problem=kreska pseudotaktowa	!	!	!
.	.	.	.	4d\	.	.	.
*	*	*xywh-#402:961,1988,4294,917	*	*	*	*	*
!	!	!LO:LB:g=original	!	!	!	!	!
.	.	2.c\	-mus	2e\	te,	.	.
.	.	.	.	.	.	4f\	-ca-
.	.	.	.	2f\	.	2.f\	-mus
.	.	8B-\L	.	.	.	.	.
.	.	8A\J	.	.	.	.	.
=22-	=22-	=22-	=22-	=22-	=22-	=22-	=22-
!	!	!LO:TX:t=P:problem=kreska pseudotaktowa	!	!	!	!	!
.	.	2G/	te,	1g\	.	.	.
.	.	.	.	.	.	4e\	te,
!	!	!	!	!	!	!LO:TX:t=P:problem=kreska pseudotaktowa	!
.	.	2G/	.	.	.	2e\	.
!	!	!LO:TX:t=P:problem=kreska pseudotaktowa	!	!LO:TX:t=P:problem=kreska pseudotaktowa	!	!	!
2r	.	1F/	.	1c\	.	1f\	.
*custos:F	*	*	*	*	*	*	*
1F\	Gra-	.	.	.	.	.	.
=23-	=23-	=23-	=23-	=23-	=23-	=23-	=23-
.	.	2r	.	2r	.	2r	.
*xywh-#575:919,2137,4335,845	*	*	*	*	*	*	*
!LO:LB:g=original	!	!	!	!	!	!	!
!LO:TX:t=P:problem=kreska pseudotaktowa	!	!	!	!	!	!	!
2F/	-ti-	1A\	Gra-	1c\	Gra-	1f\	Gra-
2F/	-as	.	.	.	.	.	.
!	!	!LO:TX:t=P:problem=kreska pseudotaktowa	!	!LO:TX:t=P:problem=kreska pseudotaktowa	!	!LO:TX:t=P:problem=kreska pseudotaktowa	!
2F/	a-	2A/	-ti-	2c/	-ti-	2f\	-ti-
=24-	=24-	=24-	=24-	=24-	=24-	=24-	=24-
*	*	*	*	*custos:f	*	*	*
2D/	-gi-	2A/	-as	2d/	-as	2f\	-as
*	*	*	*	*xywh-#206:1288,2814,4300,975	*	*	*
!	!	!	!	!LO:LB:g=original	!	!	!
2D/	-mus	2A/	a-	2.f\	a-	2f\	a-
0BB-/	ti-	2.B-/	-gi-	.	.	2.d/	-gi-
.	.	.	.	4e\	-gi-	.	.
!	!	!	!	!LO:TX:t=P:problem=kreska pseudotaktowa	!	!	!
.	.	.	.	2.d\	-mu	.	.
!	!	!LO:TX:t=P:problem=kreska pseudotaktowa	!	!	!	!LO:TX:t=P:problem=kreska pseudotaktowa	!
.	.	4A/	.	.	.	4c/	-mus
=25-	=25-	=25-	=25-	=25-	=25-	=25-	=25-
.	.	2G/	-mus	.	.	2B-/	.
.	.	.	.	4c/	.	.	.
.	.	2F/	ti-	4B-/	ti-	2d/	ti-
.	.	.	.	4A/	-bi	.	.
!LO:TX:t=P:problem=kreska pseudotaktowa	!	!LO:TX:t=P:problem=kreska pseudotaktowa	!	!	!	!LO:TX:t=P:problem=kreska pseudotaktowa	!
0C/	-bi	0E/	-bi,	2G/	.	1c\	-bi,
.	.	.	.	1c\	.	.	.
=26-	=26-	=26-	=26-	=26-	=26-	=26-	=26-
.	.	.	.	.	.	2r	.
.	.	.	.	4B-/	.	2c/	prop-
.	.	.	.	4A/	.	.	.
!	!	!	!	!LO:TX:t=P:problem=kreska pseudotaktowa	!	!	!
0r	.	2r	.	1G/	.	2d\	.
!	!	!	!	!	!	!LO:TX:t=P:problem=kreska pseudotaktowa	!
.	.	2G/	prop-	.	.	2e\	-ter
=27-	=27-	=27-	=27-	=27-	=27-	=27-	=27-
.	.	2A/	.	0r	.	1f\	ma-
!	!	!LO:TX:t=P:problem=kreska pseudotaktowa	!	!	!	!	!
.	.	2B-/	-ter	.	.	.	.
*	*	*	*	*	*	*custos:d	*
2r	.	2.c\	ma-	.	.	1e\	-gna(m)
!LO:TX:t=P:problem=kreska pseudotaktowa	!	!	!	!	!	!	!
2C/	prop-	.	.	.	.	.	.
.	.	4B-\	-gna(m)	.	.	.	.
!	!	!	!	!	!	!LO:LB:g=original	!
=28-	=28-	=28-	=28-	=28-	=28-	=28-	=28-
*	*	*	*	*	*	*xywh-#16:1023,1429,4246,893	*
*	*	*custos:G	*	*	*	*	*
2D/	-ter	2A/	glo-	1r	.	2d\	glo-
*	*	*xywh-#402:1023,2765,4305,1300	*	*	*	*	*
!	!	!LO:LB:g=original	!	!	!	!	!
2E/	ma-	2G/	-ri-	.	.	2.c/	-ri-
!	!	!LO:TX:t=P:problem=kreska pseudotaktowa	!	!	!	!	!
2.F/	-gna(m)	1A\	-am	2r	.	.	.
.	.	.	.	.	.	4B-/	-am
!	!	!	!	!LO:TX:t=P:problem=kreska pseudotaktowa	!	!	!
.	.	.	.	2c/	prop-	4A/	.
!LO:TX:t=P:problem=kreska pseudotaktowa	!	!	!	!	!	!LO:TX:t=P:problem=kreska pseudotaktowa	!
4F/	glo-	.	.	.	.	4G/	.
=29-	=29-	=29-	=29-	=29-	=29-	=29-	=29-
2F/	-ri-	2r	.	2d\	 ter-	2A/	tu-
!	!	!LO:TX:t=P:problem=kreska pseudotaktowa	!	!	!	!	!
2E/	-a(m)	2G/	prop-	2e\	.	2G/	-am,
!	!	!	!	!	!	!LO:TX:t=P:problem=kreska pseudotaktowa	!
1D/	tu-	2A/	-ter-	1.f\	-ma-	1F/	.
.	.	2B-\	-ma-	.	.	.	.
=30-	=30-	=30-	=30-	=30-	=30-	=30-	=30-
!LO:TX:t=P:problem=kreska pseudotaktowa	!	!LO:TX:t=P:problem=kreska pseudotaktowa	!	!	!	!	!
00C/	-a(m)	1c\	-gna(m)	.	.	2r	.
.	.	.	.	4e\	-gna(m)	2G/	glo-
!	!	!	!	!LO:TX:t=P:problem=kreska pseudotaktowa	!	!	!
.	.	.	.	4d\	.	.	.
.	.	2r	.	2e\	glo-	2A/	-ri-
!	!	!	!	!	!	!LO:TX:t=P:problem=kreska pseudotaktowa	!
.	.	2G/	glo-	1c\	-ri-	2G/	-am
=31-	=31-	=31-	=31-	=31-	=31-	=31-	=31-
.	.	2A/	-ri-	.	.	2.c\	.
!	!	!LO:TX:t=P:problem=kreska pseudotaktowa	!	!	!	!	!
.	.	2G/	-a(m)	4B-/	-am	.	.
*	*	*	*	*custos:G	*	*	*
!	!	!	!	!LO:TX:t=P:problem=kreska pseudotaktowa	!	!LO:TX:t=P:problem=kreska pseudotaktowa	!
.	.	.	.	4A/	.	4d\	.
*	*	*	*	*xywh-#206:6025,635,4357,907	*	*	*
!	!	!	!	!LO:PB:g=original	!	!	!
.	.	2.c\	.	2G/	.	4e\	.
.	.	.	.	.	.	4f\	.
.	.	.	.	2.c/	tu-	2g\	.
!	!	!LO:TX:t=P:problem=kreska pseudotaktowa	!	!	!	!	!
.	.	4B-\	.	.	.	.	.
=32-	=32-	=32-	=32-	=32-	=32-	=32-	=32-
0r	.	4A/	.	.	.	2.c/	tu-
.	.	4G/	.	4B-/	.	.	.
.	.	1F/	.	1A/	-am,	.	.
!	!	!	!	!	!	!LO:TX:t=P:problem=kreska pseudotaktowa	!
.	.	.	.	.	.	4B-/	-am,
.	.	.	.	.	.	4A/	.
.	.	.	.	.	.	4F/	.
.	.	4E/	tu-	4G/	.	2.f\	.
!	!	!LO:TX:t=P:problem=kreska pseudotaktowa	!	!LO:TX:t=P:problem=kreska pseudotaktowa	!	!	!
.	.	4D/	-am,	4F/	.	.	.
=33-	=33-	=33-	=33-	=33-	=33-	=33-	=33-
2r	.	1C/	.	1G/	.	.	.
*	*	*	*	*	*	*custos:e	*
.	.	.	.	.	.	4e\	.
*	*	*	*	*	*	*xywh-#16:1056,2178,4230,877	*
!	!	!	!	!	!	!LO:LB:g=original	!
!LO:TX:t=P:problem=kreska pseudotaktowa	!	!	!	!	!	!LO:TX:t=P:problem=kreska pseudotaktowa	!
2C/	do-	.	.	.	.	2e\	.
*custos:F	*	*	*	*	*	*	*
!	!	!LO:TX:t=P:problem=kreska pseudotaktowa	!	!	!	!	!
2D/	-mi-	1F/	.	2F/	.	1f\	.
*xywh-#575:975,2888,4279,868	*	*	*	*	*	*	*
!LO:LB:g=original	!	!	!	!	!	!	!
1F\	-ne	.	.	1A/	.	.	.
=34-	=34-	=34-	=34-	=34-	=34-	=34-	=34-
.	.	0r	.	.	.	2r	.
!LO:TX:t=P:problem=kreska pseudotaktowa	!	!	!	!	!	!LO:TX:t=P:problem=kreska pseudotaktowa	!
2E/	.	.	.	2G/	.	2c/	Do-
!	!	!	!	!LO:TX:t=P:problem=kreska pseudotaktowa	!	!	!
2.D/	de-	.	.	1A/	.	2d\	-mi-
.	.	.	.	.	.	1f\	-ne
4E/	-us	.	.	.	.	.	.
=35-	=35-	=35-	=35-	=35-	=35-	=35-	=35-
!	!	!LO:TX:a:t=7	!	!	!	!	!
4F/	.	0r	.	00r	.	.	.
4D/	.	.	.	.	.	.	.
!	!	!	!	!	!	!LO:TX:t=P:problem=kreska pseudotaktowa	!
2.G\	rex	.	.	.	.	2e\	de-
.	.	.	.	.	.	2d\	-us
4F/	.	.	.	.	.	.	.
4E/	.	.	.	.	.	2.e\	rex
!LO:TX:t=P:problem=kreska pseudotaktowa	!	!	!	!	!	!	!
4D/	.	.	.	.	.	.	.
=36-	=36-	=36-	=36-	=36-	=36-	=36-	=36-
2C/	ce-	0r	.	.	.	.	.
.	.	.	.	.	.	4d\	ce-
2E/	.	.	.	.	.	1c\	-leſ-
1D/	-leſ-	.	.	.	.	.	.
!	!	!	!	!	!	!LO:TX:t=P:problem=kreska pseudotaktowa	!
.	.	.	.	.	.	2B-/	.
=37-	=37-	=37-	=37-	=37-	=37-	=37-	=37-
!LO:TX:t=P:problem=kreska pseudotaktowa	!	!LO:TX:t=P:problem=kreska pseudotaktowa	!	!	!	!	!
0.C/	-tis	1r	.	2r	.	00c\	-tis,
!	!	!	!	!LO:TX:t=P:problem=kreska pseudotaktowa	!	!	!
.	.	.	.	2G/	-De-	.	.
.	.	2r	.	2A/	-us	.	.
!	!	!LO:TX:t=P:problem=kreska pseudotaktowa	!	!	!	!	!
.	.	2G/	de-	2.c/	pa-	.	.
=38-	=38-	=38-	=38-	=38-	=38-	=38-	=38-
*	*	*custos:c	*	*	*	*	*
.	.	2A/	-us	.	.	.	.
.	.	.	.	4B-/	.	.	.
*	*	*xywh-#402:5824,474,4395,939	*	*	*	*	*
!	!	!LO:PB:g=original	!	!	!	!	!
.	.	2.c\	pa-	4A/	-ter	.	.
!	!	!	!	!LO:TX:t=P:problem=kreska pseudotaktowa	!	!	!
.	.	.	.	4G/	.	.	.
0r	.	.	.	2.F/	om-	.	.
.	.	4B-\	-ter	.	.	.	.
.	.	4A/	.	.	.	.	.
!	!	!LO:TX:t=P:problem=kreska pseudotaktowa	!	!	!	!	!
.	.	4G/	.	4G/	-ni-	.	.
=39-	=39-	=39-	=39-	=39-	=39-	=39-	=39-
.	.	2F/	om-	4A/	-po-	1r	.
*	*	*	*	*custos:f	*	*	*
.	.	.	.	4F/	-tens,	.	.
*	*	*	*	*xywh-#206:5991,1424,4243,822	*	*	*
!	!	!	!	!LO:LB:g=original	!	!	!
!	!	!	!	!LO:TX:t=P:problem=kreska pseudotaktowa	!	!	!
.	.	2A/	.	2.f\	.	.	.
1C/	de-	2G/	-ni-	.	.	2r	.
.	.	.	.	4e\	.	.	.
!	!	!LO:TX:t=P:problem=kreska pseudotaktowa	!	!LO:TX:t=P:problem=kreska pseudotaktowa	!	!LO:TX:t=P:problem=kreska pseudotaktowa	!
.	.	2G/	-po-	2e\	.	2c/	de-
=40-	=40-	=40-	=40-	=40-	=40-	=40-	=40-
2C/	-us	2.F/	-tens,	2f\	.	2A/	-us-
*	*	*	*	*lig	*	*	*
2.F/	pa-	.	.	1c\	.	2F/	-p(a-
.	.	4G/	.	.	.	.	.
.	.	2A/	.	.	.	2.f\	-te)r
4E/	-ter	.	.	.	.	.	.
!	!	!LO:TX:t=P:problem=kreska pseudotaktowa	!	!	!	!	!
4D/	.	2.B-/	.	1d/	.	.	.
4C/	.	.	.	.	.	4e\	om-
!LO:TX:t=P:problem=kreska pseudotaktowa	!	!	!	!	!	!LO:TX:t=P:problem=kreska pseudotaktowa	!
*	*	*	*	*Xlig	*	*	*
=41-	=41-	=41-	=41-	=41-	=41-	=41-	=41-
*custos:D	*	*	*	*	*	*	*
2BB-/	om-	.	.	.	.	2d\	-ni-
.	.	4A/	.	.	.	.	.
*xywh-#575:5613,602,4335,957	*	*	*	*	*	*	*
!LO:PB:g=original	!	!	!	!	!	!	!
2D/	-ni-	4G/	.	2B-/	.	2.f\	-po-
.	.	4F/	.	.	.	.	.
!	!	!	!	!LO:TX:t=P:problem=kreska pseudotaktowa	!	!	!
2C/	-po-	2G/	.	1c\	.	.	.
*	*	*	*	*	*	*custos:e	*
.	.	.	.	.	.	4e\	-tens,
*	*	*	*	*	*	*xywh-#16:1023,2961,4307,1015	*
!	!	!	!	!	!	!LO:LB:g=original	!
!	!	!	!	!	!	!LO:TX:t=P:problem=kreska pseudotaktowa	!
2C/	-ten,	2G/	.	.	.	2e\	.
=42-	=42-	=42-	=42-	=42-	=42-	=42-	=42-
!LO:TX:t=P:problem=kreska pseudotaktowa	!	!LO:TX:t=P:problem=kreska pseudotaktowa	!	!	!	!	!
1F\	.	1F/	.	2r	.	0f\	.
.	.	.	.	2c/	Do-	.	.
2r	.	2r	.	2c/	-mi-	.	.
!	!	!	!	!LO:TX:t=P:problem=kreska pseudotaktowa	!	!	!
2F/	do-	1A\	Do-	2c/	-ne	.	.
=43-	=43-	=43-	=43-	=43-	=43-	=43-	=43-
2D/	-mi-	.	.	1d\	fi-	2r	.
!	!	!LO:TX:t=P:problem=kreska pseudotaktowa	!	!	!	!	!
2D/	-ne	2A/	-mi-	.	.	1f\	Do-
!LO:TX:t=P:problem=kreska pseudotaktowa	!	!	!	!	!	!	!
1F\	fi-	2A/	-ne	2c/	-li	.	.
!	!	!	!	!LO:TX:t=P:problem=kreska pseudotaktowa	!	!LO:TX:t=P:problem=kreska pseudotaktowa	!
.	.	2A/	fi-	2A/	v-	2f\	-mi-
=44-	=44-	=44-	=44-	=44-	=44-	=44-	=44-
*	*	*custos:B-	*	*	*	*	*
!	!	!LO:TX:t=P:problem=kreska pseudotaktowa	!	!	!	!	!
0BB-/	-li	1F/	-li	2.B-/	-ni-	2f\	-ne
.	.	.	.	.	.	2d\	fi-
.	.	.	.	4A/	-ge-	.	.
*	*	*xywh-#402:5830,1296,4294,861	*	*	*	*	*
!	!	!LO:LB:g=original	!	!	!	!	!
!	!	!	!	!	!	!LO:TX:t=P:problem=kreska pseudotaktowa	!
.	.	2.B-\	v-	2G/	-ni-	1d\	-li
!	!	!	!	!LO:TX:t=P:problem=kreska pseudotaktowa	!	!	!
.	.	.	.	2F/	-te	.	.
.	.	4A\	-ni-	.	.	.	.
=45-	=45-	=45-	=45-	=45-	=45-	=45-	=45-
1.C/	v-	2.G/	  ge-	2.E/	.	1.e\	v-
.	.	4F/	-ni-	4F/	.	.	.
*	*	*lig	*	*	*	*	*
!	!	!	!	!LO:TX:t=P:problem=kreska pseudotaktowa	!	!	!
.	.	1E/	-te,	1G/	.	.	.
!LO:TX:t=P:problem=kreska pseudotaktowa	!	!	!	!	!	!LO:TX:t=P:problem=kreska pseudotaktowa	!
2C/	-ni-	.	.	.	.	2c/	-ni-
=46-	=46-	=46-	=46-	=46-	=46-	=46-	=46-
*	*	*	*	*custos:F	*	*	*
!	!	!LO:TX:t=P:problem=kreska pseudotaktowa	!	!	!	!	!
1D/	-ge-	1F/	.	2r	.	1.f\	-ge-
*	*	*	*	*xywh-#206:5985,2099,4294,896	*	*	*
!	!	!	!	!LO:LB:g=original	!	!	!
.	.	.	.	2F/	Ie-	.	.
*	*	*Xlig	*	*	*	*	*
!	!	!	!	!LO:TX:t=P:problem=kreska pseudotaktowa	!	!	!
1BB-/	-ni-	2r	.	1B-/	-ſu	.	.
.	.	2F/	Ie-	.	.	4e\	-ni-
.	.	.	.	.	.	4d\	-te,
=47-	=47-	=47-	=47-	=47-	=47-	=47-	=47-
!LO:TX:t=P:problem=kreska pseudotaktowa	!	!	!	!	!	!LO:TX:t=P:problem=kreska pseudotaktowa	!
1C/	-te	2.c\	-ſu	2r	.	0e\	.
.	.	.	.	2G/	Ie-	.	.
!	!	!LO:TX:t=P:problem=kreska pseudotaktowa	!	!	!	!	!
.	.	4B-\	.	.	.	.	.
2r	.	2A/	Chri-	2.c/	-ſu	.	.
!	!	!LO:TX:t=P:problem=kreska pseudotaktowa	!	!	!	!	!
2C/	Ie-	2G/	-ſte,	.	.	.	.
!	!	!	!	!LO:TX:t=P:problem=kreska pseudotaktowa	!	!	!
.	.	.	.	4B-/	.	.	.
=48-	=48-	=48-	=48-	=48-	=48-	=48-	=48-
1F\	-ſu	2F/	.	2.A/	Chri-	2r	.
.	.	2.A/	.	.	.	2c/	Ie-
.	.	.	.	4G/	.	.	.
0D/	Chri-	.	.	2.F/	-ſte,	1f\	-ſu
.	.	4G/	.	.	.	.	.
.	.	4F/	.	.	.	.	.
!	!	!	!	!LO:TX:t=P:problem=kreska pseudotaktowa	!	!	!
.	.	4E/	.	4G/	.	.	.
=49-	=49-	=49-	=49-	=49-	=49-	=49-	=49-
!	!	!LO:TX:t=P:problem=kreska pseudotaktowa	!	!	!	!LO:TX:t=P:problem=kreska pseudotaktowa	!
.	.	1F/	.	2A/	.	1d\	Chri-
.	.	.	.	2B-/	.	.	.
*custos:G	*	*	*	*	*	*	*
*	*	*	*	*	*	*custos:c	*
!LO:TX:t=P:problem=kreska pseudotaktowa	!	!	!	!LO:TX:t=P:problem=kreska pseudotaktowa	!	!	!
0C/	-ſte,	2r	.	1c\	.	0e\	-ſte,
.	.	2G/	Do-	.	.	.	.
=50-	=50-	=50-	=50-	=50-	=50-	=50-	=50-
.	.	2A/	.	2r	.	.	.
!	!	!LO:TX:t=P:problem=kreska pseudotaktowa	!	!	!	!	!
.	.	2G/	-mi-	2c/	Do-	.	.
00r	.	4F/	-ne	2d/	-mi-	00r	.
.	.	4G/	de-	.	.	.	.
!	!	!	!	!LO:TX:t=P:problem=kreska pseudotaktowa	!	!	!
.	.	4A/	-us	2c/	-ne	.	.
*	*	*custos:G	*	*	*	*	*
.	.	4F/	.	.	.	.	.
!	!	!LO:LB:g=original	!	!	!	!	!
=51-	=51-	=51-	=51-	=51-	=51-	=51-	=51-
*	*	*xywh-#402:5830,2027,4249,838	*	*	*	*	*
.	.	2G/	a-	4B-/	de-	.	.
.	.	.	.	4c/	-us	.	.
!	!	!LO:TX:t=P:problem=kreska pseudotaktowa	!	!	!	!	!
.	.	2B-/	-gnus	4d/	.	.	.
!	!	!	!	!LO:TX:t=P:problem=kreska pseudotaktowa	!	!	!
.	.	.	.	4B-/	a-	.	.
*	*	*	*	*custos:f	*	*	*
.	.	2A/	.	2c/	-gnus	.	.
*	*	*	*	*xywh-#206:6014,2910,4249,811	*	*	*
!	!	!	!	!LO:LB:g=original	!	!	!
.	.	4F/	.	1f\	de-	.	.
!	!	!LO:TX:t=P:problem=kreska pseudotaktowa	!	!	!	!	!
.	.	4G/	de-	.	.	.	.
=52-	=52-	=52-	=52-	=52-	=52-	=52-	=52-
.	.	4A\	-i	.	.	.	.
.	.	4B-\	.	.	.	.	.
!	!	!	!	!LO:TX:t=P:problem=kreska pseudotaktowa	!	!	!
.	.	1c\	.	2e\	-i	.	.
*xywh-#575:5652,1454,4274,773	*	*	*	*	*	*	*
!LO:LB:g=original	!	!	!	!	!	!	!
2r	.	.	.	1d\	.	1r	.
!LO:TX:t=P:problem=kreska pseudotaktowa	!	!	!	!	!	!	!
2G\	fi-	2B-\	.	.	.	.	.
=53-	=53-	=53-	=53-	=53-	=53-	=53-	=53-
*	*	*	*	*	*	*custos:c	*
!	!	!LO:TX:t=P:problem=kreska pseudotaktowa	!	!	!	!LO:TX:t=P:problem=kreska pseudotaktowa	!
2A\	-li-	1c\	.	2.c/	.	2r	.
*	*	*	*	*	*	*xywh-#16:5769,707,4285,838	*
!	!	!	!	!	!	!LO:PB:g=original	!
!	!	!	!	!	!	!LO:TX:t=P:problem=kreska pseudotaktowa	!
1F\	-us	.	.	.	.	2c/	fi-
!	!	!	!	!LO:TX:t=P:problem=kreska pseudotaktowa	!	!	!
.	.	.	.	4B-/	.	.	.
.	.	2r	.	2A/	.	2d/	-li-
!LO:TX:t=P:problem=kreska pseudotaktowa	!	!	!	!	!	!	!
2E/	pa-	2C/	fi-	2G/	.	2e\	-us
=54-	=54-	=54-	=54-	=54-	=54-	=54-	=54-
!	!	!	!	!LO:TX:t=P:problem=kreska pseudotaktowa	!	!	!
2F/	-tris,	2.F/	-li-	1A/	.	2c/	pa-
2D/	.	.	.	.	.	2.f\	-tris,
!	!	!LO:TX:t=P:problem=kreska pseudotaktowa	!	!	!	!	!
.	.	4G/	-us	.	.	.	.
!LO:TX:t=P:problem=kreska pseudotaktowa	!	!	!	!	!	!	!
1C/	.	2A/	.	2r	.	.	.
.	.	.	.	.	.	4e\	.
!	!	!	!	!	!	!LO:TX:t=P:problem=kreska pseudotaktowa	!
.	.	2G/	.	2c/	fi-	2e\	.
=55-	=55-	=55-	=55-	=55-	=55-	=55-	=55-
1r	.	2.F/	pa-	4d\	-li-	2.f\	.
.	.	.	.	4c\	-us	.	.
.	.	.	.	1f\	.	.	.
!	!	!LO:TX:t=P:problem=kreska pseudotaktowa	!	!	!	!	!
.	.	4G/	-tris,	.	.	8e\L	.
.	.	.	.	.	.	8d\J	.
2r	.	2A/	.	.	.	1c\	.
!LO:TX:t=P:problem=kreska pseudotaktowa	!	!	!	!LO:TX:t=P:problem=kreska pseudotaktowa	!	!	!
2C/	fi-	2G/	.	2e\	.	.	.
=56-	=56-	=56-	=56-	=56-	=56-	=56-	=56-
!	!	!LO:TX:t=P:problem=kreska pseudotaktowa	!	!	!	!LO:TX:t=P:problem=kreska pseudotaktowa	!
2.D/	-li-	1F/	.	2.f\	.	1A/	.
4C/	-us	.	.	4e\	pa-	.	.
2BB-/	pa-	2r	.	2d\	-tris,	2r	.
*	*	*custos:F	*	*	*	*	*
!LO:TX:t=P:problem=kreska pseudotaktowa	!	!	!	!LO:TX:t=P:problem=kreska pseudotaktowa	!	!	!
*	*	*	*	*	*	*	*ij
2AA/	-tris,	2C/	fi-	2c/	.	2c/	fi-
!	!	!LO:LB:g=original	!	!	!	!	!
=57-	=57-	=57-	=57-	=57-	=57-	=57-	=57-
*	*	*xywh-#402:5875,2680,4255,939	*	*	*	*	*
*	*	*	*	*lig	*	*	*
2BB-/	.	2.F/	-li-	1B-/	.	2d/	 li-
!	!	!	!	!	!	!LO:TX:t=P:problem=kreska pseudotaktowa	!
2D/	.	.	.	.	.	2.f\	-us
!	!	!LO:TX:t=P:problem=kreska pseudotaktowa	!	!	!	!	!
.	.	4G/	-us	.	.	.	.
!LO:TX:t=P:problem=kreska pseudotaktowa	!	!	!	!LO:TX:t=P:problem=kreska pseudotaktowa	!	!	!
1C/	.	2A/	.	1c\	.	.	.
.	.	.	.	.	.	4e\	.
.	.	2G/	.	.	.	2e\	pa-
*	*	*	*	*Xlig	*	*	*
=58-	=58-	=58-	=58-	=58-	=58-	=58-	=58-
*	*	*	*	*custos:d	*	*custos:F	*
2.D/	.	2F/	.	2A/	fi-	00.f\;<	-tris
*	*	*	*	*xywh-#207:1439,553,4272,879	*	*	*
!	!	!	!	!LO:PB:g=original	!	!	!
*	*	*	*	*	*	*	*Xij
.	.	2.B-\	pa-	1d\	-li-	.	.
4E/	.	.	.	.	.	.	.
1F\	.	.	.	.	.	.	.
.	.	4A/	.	.	.	.	.
!	!	!LO:TX:t=P:problem=kreska pseudotaktowa	!	!LO:TX:t=P:problem=kreska pseudotaktowa	!	!	!
.	.	2A/	-tris,	2c/	-us	.	.
=59-	=59-	=59-	=59-	=59-	=59-	=59-	=59-
0BB-/	.	1.B-\	.	1.d\	pa-	.	.
.	.	4A/	.	4c/	-tris	.	.
.	.	4G/	.	4B-/	.	.	.
=60-	=60-	=60-	=60-	=60-	=60-	=60-	=60-
*custos:C	*	*	*	*	*	*	*
0Fl\;	.	0Al\;	.	0c\	.	.	.
!LO:LB:g=original	!	!	!	!	!	!LO:LB:g=original	!
=61||-	=61||-	=61||-	=61||-	=61||-	=61||-	=61||-	=61||-
*xywh-#575:5652,2092,4335,879	*	*	*	*	*	*xywh-#16:5725,1462,4230,860	*
*	*	*M2/1	*	*M2/1	*	*M2/1	*
*	*	*met(C|)	*	*met(C|)	*	*met(C|)	*
00r	.	00r	.	0r	.	1F/	Qui
.	.	.	.	.	.	2.c/	tol-
!	!	!	!	!	!	!LO:TX:t=P:problem=kreska pseudotaktowa	!
.	.	.	.	.	.	4c/	-lis
=62-	=62-	=62-	=62-	=62-	=62-	=62-	=62-
.	.	.	.	1F/	Qui	2c/	pec-
.	.	.	.	.	.	2d\	-ca-
.	.	.	.	2.c/	tol-	2e\	-ta
.	.	.	.	.	.	2e\	m(un)-
!	!	!	!	!LO:TX:t=P:problem=kreska pseudotaktowa	!	!	!
.	.	.	.	4c/	-lis	.	.
=63-	=63-	=63-	=63-	=63-	=63-	=63-	=63-
!LO:TX:t=P:problem=kreska pseudotaktowa	!	!LO:TX:t=P:problem=kreska pseudotaktowa	!	!	!	!LO:TX:t=P:problem=kreska pseudotaktowa	!
1r	.	1F/	Qui	2c/	pec-	1f\	-di,
.	.	.	.	2d/	-ca-	.	.
1C/	Qui	2.c\	tol-	2e\	-ta	2r	.
!	!	!	!	!LO:TX:t=P:problem=kreska pseudotaktowa	!	!LO:TX:t=P:problem=kreska pseudotaktowa	!
*	*	*	*	*	*	*	*ij
.	.	.	.	2e\	mun-	2g\	Qui
!	!	!LO:TX:t=P:problem=kreska pseudotaktowa	!	!	!	!	!
.	.	4c\	-lis	.	.	.	.
=64-	=64-	=64-	=64-	=64-	=64-	=64-	=64-
2.F/	tol-	2c\	pec-	1f\	-di	2.a\	tol-
!	!	!LO:TX:t=P:problem=kreska pseudotaktowa	!	!	!	!	!
.	.	2c\	-ca-	.	.	.	.
!LO:TX:t=P:problem=kreska pseudotaktowa	!	!	!	!	!	!	!
4F/	-lis	.	.	.	.	4a\	-lis
2F/	pec-	2d\	-ta	2.f\	.	2a\	pec-
*	*	*custos:B-	*	*	*	*	*
!	!	!LO:TX:t=P:problem=kreska pseudotaktowa	!	!	!	!LO:TX:t=P:problem=kreska pseudotaktowa	!
2F/	-ca-	2c\	mu(n)-	.	.	2a\	-ca-
.	.	.	.	4e\	.	.	.
!	!	!LO:PB:g=original	!	!	!	!	!
=65-	=65-	=65-	=65-	=65-	=65-	=65-	=65-
*	*	*xywh-#403:988,488,4260,889	*	*	*	*	*
2G\	.	2B-/	.	2d/	.	2g\	  ta
*	*	*	*	*custos:d	*	*	*
!	!	!	!	!LO:TX:t=P:problem=kreska pseudotaktowa	!	!	!
2A\	-ta	2A/	-mun-	2c/	.	1f\	m(un)-
*	*	*	*	*xywh-#207:1496,1353,4277,833	*	*	*
!	!	!	!	!LO:LB:g=original	!	!	!
1B-\	m(un)-	1G/	-di,	1d\	.	.	.
.	.	.	.	.	.	4e\	.
.	.	.	.	.	.	4d\	.
=66-	=66-	=66-	=66-	=66-	=66-	=66-	=66-
!LO:TX:t=P:problem=kreska pseudotaktowa	!	!LO:TX:t=P:problem=kreska pseudotaktowa	!	!	!	!LO:TX:t=P:problem=kreska pseudotaktowa	!
0F\	-di,	1A\	.	2c/	mi-	0f\	-di
*	*	*	*	*	*	*	*Xij
!	!	!	!	!LO:TX:t=P:problem=kreska pseudotaktowa	!	!	!
.	.	.	.	2c/	-ſe-	.	.
.	.	2r	.	2A/	-re-	.	.
.	.	2c\	mi-	2F/	-re	.	.
=67-	=67-	=67-	=67-	=67-	=67-	=67-	=67-
!	!	!	!	!LO:TX:t=P:problem=kreska pseudotaktowa	!	!	!
2r	.	2A/	-ſe-	1c\	no-	2r	.
*	*	*	*	*	*	*custos:f	*
!	!	!LO:TX:t=P:problem=kreska pseudotaktowa	!	!	!	!LO:TX:t=P:problem=kreska pseudotaktowa	!
2F/	mi-	2F/	-re-	.	.	2f\	mi-
*	*	*	*	*	*	*xywh-#16:5703,2262,4291,766	*
!	!	!	!	!	!	!LO:LB:g=original	!
2D/	-ſe-	2A/	-re	1.d\	-bis,	2f\	-ſe-
!LO:TX:t=P:problem=kreska pseudotaktowa	!	!	!	!	!	!	!
2BB-/	-re-	2.B-\	no-	.	.	2f\	-re-
=68-	=68-	=68-	=68-	=68-	=68-	=68-	=68-
1D/	-re	.	.	.	.	2d\	-re
.	.	4A/	-bis,	.	.	.	.
!	!	!	!	!	!	!LO:TX:t=P:problem=kreska pseudotaktowa	!
.	.	4G/	.	2B-/	.	2.f\	no-
!	!	!LO:TX:t=P:problem=kreska pseudotaktowa	!	!	!	!	!
.	.	4F/	.	.	.	.	.
!LO:TX:t=P:problem=kreska pseudotaktowa	!	!	!	!LO:TX:t=P:problem=kreska pseudotaktowa	!	!	!
1C/	.	1G/	.	1c\	.	.	.
.	.	.	.	.	.	4e\	-bis,
.	.	.	.	.	.	2e\	.
=69-	=69-	=69-	=69-	=69-	=69-	=69-	=69-
!	!	!LO:TX:t=P:problem=kreska pseudotaktowa	!	!	!	!LO:TX:t=P:problem=kreska pseudotaktowa	!
2.c\	.	0F/	.	2r	.	1f\	.
.	.	.	.	2F/	qui	.	.
!LO:TX:t=P:problem=kreska pseudotaktowa	!	!	!	!	!	!	!
4B-\	.	.	.	.	.	.	.
!	!	!	!	!	!	!LO:TX:a:t=1	!
4A\	no-	.	.	2.c/	tol-	1r	.
4G\	-bis,	.	.	.	.	.	.
2.F/	.	.	.	.	.	.	.
!	!	!	!	!LO:TX:t=P:problem=kreska pseudotaktowa	!	!	!
.	.	.	.	4c/	-lis	.	.
=70-	=70-	=70-	=70-	=70-	=70-	=70-	=70-
.	.	0r	.	2c/	pec-	1F/	qui
*custos:D	*	*	*	*	*	*	*
4E/	.	.	.	.	.	.	.
*xywh-#575:5624,2854,4347,845	*	*	*	*	*	*	*
!LO:LB:g=original	!	!	!	!	!	!	!
!LO:TX:t=P:problem=kreska pseudotaktowa	!	!	!	!	!	!	!
2D/	.	.	.	2d\	-ca-	.	.
1C/	.	.	.	2e\	-ta	2.c/	tol-
!	!	!	!	!LO:TX:t=P:problem=kreska pseudotaktowa	!	!	!
.	.	.	.	2e\	m(un)-	.	.
!	!	!	!	!	!	!LO:TX:t=P:problem=kreska pseudotaktowa	!
.	.	.	.	.	.	4c/	-lis
=71-	=71-	=71-	=71-	=71-	=71-	=71-	=71-
!LO:TX:t=P:problem=kreska pseudotaktowa	!	!	!	!	!	!	!
1F\	.	2r	.	1f\	-di,	2c/	pec-
!	!	!LO:TX:t=P:problem=kreska pseudotaktowa	!	!	!	!LO:TX:t=P:problem=kreska pseudotaktowa	!
.	.	2F/	qui	.	.	2d\	-ca-
2r	.	2.c\	tol-	2r	.	2e\	-ta-
!	!	!	!	!LO:TX:t=P:problem=kreska pseudotaktowa	!	!LO:TX:t=P:problem=kreska pseudotaktowa	!
2C/	qui	.	.	2g\	qui	2e\	.
.	.	4c\	-lis	.	.	.	.
=72-	=72-	=72-	=72-	=72-	=72-	=72-	=72-
2.F/	tol-	2c\	pec-	2.a\	tol-	2f\	.
*	*	*custos:c	*	*	*	*	*
!	!	!LO:TX:t=P:problem=kreska pseudotaktowa	!	!	!	!	!
.	.	2d\	-ca-	.	.	1a\	.
*	*	*	*	*custos:f	*	*	*
!LO:TX:t=P:problem=kreska pseudotaktowa	!	!	!	!LO:TX:t=P:problem=kreska pseudotaktowa	!	!	!
4F/	-lis	.	.	4g\	-lis	.	.
*	*	*xywh-#403:982,1248,4221,866	*	*xywh-#207:1530,2118,4215,833	*	*	*
!	!	!LO:LB:g=original	!	!LO:LB:g=original	!	!	!
2F/	pec-	2.c\	-ta	2f\	pec-	.	.
!LO:TX:t=P:problem=kreska pseudotaktowa	!	!	!	!LO:TX:t=P:problem=kreska pseudotaktowa	!	!LO:TX:t=P:problem=kreska pseudotaktowa	!
2C/	-ca-	.	.	2e\	-ca-	2g\	-mun-
.	.	4B-\	.	.	.	.	.
=73-	=73-	=73-	=73-	=73-	=73-	=73-	=73-
2D/	.	2A/	mun-	2d\	-ta	2.f\	.
!	!	!LO:TX:t=P:problem=kreska pseudotaktowa	!	!	!	!	!
2E/	-ta	2G/	.	2.c/	mun-	.	.
.	.	.	.	.	.	8e\L	-di
*	*	*	*	*	*	*custos:c	*
.	.	.	.	.	.	8d\J	.
*	*	*	*	*	*	*xywh-#16:5747,2878,4302,915	*
!	!	!	!	!	!	!LO:LB:g=original	!
1F\	mun-	2.A/	-di,	.	.	2c/	.
.	.	.	.	4B-/	.	.	.
!	!	!	!	!LO:TX:t=P:problem=kreska pseudotaktowa	!	!	!
.	.	.	.	2A/	-di	1f\	.
.	.	4B-\	.	.	.	.	.
=74-	=74-	=74-	=74-	=74-	=74-	=74-	=74-
!LO:TX:t=P:problem=kreska pseudotaktowa	!	!LO:TX:t=P:problem=kreska pseudotaktowa	!	!	!	!	!
1C/	-di	0c\	.	1G/	.	.	.
.	.	.	.	.	.	2e\	.
!	!	!	!	!LO:TX:t=P:problem=kreska pseudotaktowa	!	!LO:TX:t=P:problem=kreska pseudotaktowa	!
1.F\	Su-	.	.	1A/	.	0f\	.
=75-	=75-	=75-	=75-	=75-	=75-	=75-	=75-
.	.	2r	.	2r	.	.	.
2F/	-ſci-	1A\	Su-	1c\	Su-	.	.
!LO:TX:t=P:problem=kreska pseudotaktowa	!	!	!	!	!	!	!
0F\	-pe	.	.	.	.	2r	.
!	!	!LO:TX:t=P:problem=kreska pseudotaktowa	!	!LO:TX:t=P:problem=kreska pseudotaktowa	!	!	!
.	.	2A/	-ſci-	2c/	-ſci-	1f\	Su-
=76-	=76-	=76-	=76-	=76-	=76-	=76-	=76-
.	.	2A/	-pe	2c/	-pe	.	.
!	!	!LO:TX:t=P:problem=kreska pseudotaktowa	!	!	!	!LO:TX:t=P:problem=kreska pseudotaktowa	!
.	.	2A/	de-	2c/	de-	2f\	-ſci-
2r	.	2B-\	-pre-	2.d\	-pre-	2f\	-pe
!	!	!	!	!	!	!LO:TX:t=P:problem=kreska pseudotaktowa	!
1D/	de-	2B-\	-ca-	.	.	2f\	de-
!	!	!	!	!LO:TX:t=P:problem=kreska pseudotaktowa	!	!	!
.	.	.	.	4d\	-ca-	.	.
=77-	=77-	=77-	=77-	=77-	=77-	=77-	=77-
.	.	2.A/	-ti-	2d\	-ti-	2f\	-pre-
!LO:TX:t=P:problem=kreska pseudotaktowa	!	!	!	!	!	!	!
2D/	-pre-	.	.	2B-/	-o-	2f\	-ca-
.	.	8G/L	-o-	.	.	.	.
!	!	!LO:TX:t=P:problem=kreska pseudotaktowa	!	!	!	!	!
.	.	8F/J	-nem	.	.	.	.
*custos:C	*	*	*	*	*	*	*
2C/	-ca-	2G/	noſ-	2.c/	-nem	2e\	-ti-
*xywh-#576:1011,623,4302,868	*	*	*	*	*	*	*
!LO:PB:g=original	!	!	!	!	!	!	!
!LO:TX:t=P:problem=kreska pseudotaktowa	!	!	!	!	!	!LO:TX:t=P:problem=kreska pseudotaktowa	!
2C/	-ti-	2G/	-tram,	.	.	2e\	-o-
!	!	!	!	!LO:TX:t=P:problem=kreska pseudotaktowa	!	!	!
.	.	.	.	4B-/	.	.	.
=78-	=78-	=78-	=78-	=78-	=78-	=78-	=78-
1D/	-o-	2F/	.	2A/	noſ-	1f\	-ne(m)
*	*	*	*	*custos:B-	*	*	*
!	!	!LO:TX:t=P:problem=kreska pseudotaktowa	!	!	!	!	!
.	.	2A/	.	2F/	-tram,-	.	.
*	*	*custos:F	*	*	*	*	*
*	*	*	*	*xywh-#207:1462,2879,4300,1060	*	*	*
!	!	!	!	!LO:LB:g=original	!	!	!
!	!	!	!	!	!	!LO:TX:t=P:problem=kreska pseudotaktowa	!
1BB-/	-ne(m)	2G/	.	1.B-/	.	1d\	noſ-
*	*	*xywh-#403:999,2008,4221,861	*	*	*	*	*
!	!	!LO:LB:g=original	!	!	!	!	!
.	.	1F/	.	.	.	.	.
=79-	=79-	=79-	=79-	=79-	=79-	=79-	=79-
0C/	noſ-	.	.	.	.	1.e\	-tram,
.	.	4E/	.	4A/	.	.	.
!	!	!LO:TX:t=P:problem=kreska pseudotaktowa	!	!	!	!	!
.	.	4D/	.	4G/	.	.	.
*	*	*	*	*lig	*	*	*
.	.	1E/	.	1A/	.	.	.
.	.	.	.	.	.	4d\	.
*	*	*	*	*	*	*custos:d	*
.	.	.	.	.	.	4c\	.
!	!	!	!	!	!	!LO:PB:g=original	!
=80-	=80-	=80-	=80-	=80-	=80-	=80-	=80-
*	*	*	*	*	*	*xywh-#17:998,684,4296,854	*
!LO:TX:t=P:problem=kreska pseudotaktowa	!	!LO:TX:t=P:problem=kreska pseudotaktowa	!	!	!	!	!
00BB-/	-tram,	1F/	.	1.B-/	.	0d\	tram.
.	.	2r	.	.	.	.	.
*	*	*	*	*Xlig	*	*	*
.	.	2F/	qui	4A/	.	.	.
.	.	.	.	4G/	.	.	.
=81-	=81-	=81-	=81-	=81-	=81-	=81-	=81-
!	!	!	!	!LO:TX:t=P:problem=kreska pseudotaktowa	!	!	!
.	.	1B-\	ſe-	1F/	.	2r	.
!	!	!	!	!	!	!LO:TX:t=P:problem=kreska pseudotaktowa	!
.	.	.	.	.	.	2d\	qui
!	!	!LO:TX:t=P:problem=kreska pseudotaktowa	!	!	!	!	!
.	.	1F/	-des,	2r	.	1f\	ſe-
.	.	.	.	2B-/	-qui	.	.
=82-	=82-	=82-	=82-	=82-	=82-	=82-	=82-
!	!	!	!	!LO:TX:t=P:problem=kreska pseudotaktowa	!	!	!
2r	.	1r	.	1B-/	ſe-	2d\	-des
!	!	!	!	!	!	!LO:TX:t=P:problem=kreska pseudotaktowa	!
2BB-/	qui	.	.	.	.	2d\	ad
!LO:TX:t=P:problem=kreska pseudotaktowa	!	!	!	!	!	!	!
1E-X/	ſe-	2r	.	2G/	-des	2.g\	dex-
!	!	!LO:TX:t=P:problem=kreska pseudotaktowa	!	!	!	!	!
.	.	2G/	ad	2A/	ad	.	.
.	.	.	.	.	.	4f\	.
=83-	=83-	=83-	=83-	=83-	=83-	=83-	=83-
2C/	-des	2G/	dex-	2.c/	dex-	4e\	-te-
.	.	.	.	.	.	4d\	.
2C/	ad	2G/	-te-	.	.	1c\	-ram
!	!	!	!	!LO:TX:t=P:problem=kreska pseudotaktowa	!	!	!
.	.	.	.	4B-/	.	.	.
2.F/	dex-	2.A/	-ram	4A/	-te-	.	.
.	.	.	.	4G/	-ram	.	.
.	.	.	.	2.F/	.	1f\	pa-
!LO:TX:t=P:problem=kreska pseudotaktowa	!	!LO:TX:t=P:problem=kreska pseudotaktowa	!	!	!	!	!
4Eny/	-te-	4G/	.	.	.	.	.
=84-	=84-	=84-	=84-	=84-	=84-	=84-	=84-
2D/	-ra(m)	4A/	.	.	.	.	.
.	.	4B-/	.	4G/	pa-	.	.
!	!	!	!	!	!	!LO:TX:t=P:problem=kreska pseudotaktowa	!
2C/	pa-	1c\	pa-	1A/	-tris-	2e\	-tris,
1D/	-tris	.	.	.	.	1f\	.
.	.	2B-\	-tris,	4G/	.	.	.
.	.	.	.	4F/	.	.	.
=85-	=85-	=85-	=85-	=85-	=85-	=85-	=85-
!LO:TX:t=P:problem=kreska pseudotaktowa	!	!LO:TX:t=P:problem=kreska pseudotaktowa	!	!LO:TX:t=P:problem=kreska pseudotaktowa	!	!LO:TX:t=P:problem=kreska pseudotaktowa	!
0.C/	.	0c\	.	1G/	.	00e\	.
*	*	*	*	*custos:G	*	*	*
.	.	.	.	2r	.	.	.
*	*	*	*	*xywh-#207:5984,621,4345,907	*	*	*
!	!	!	!	!LO:PB:g=original	!	!	!
!	!	!	!	!LO:TX:t=P:problem=kreska pseudotaktowa	!	!	!
.	.	.	.	2G/	-mi-	.	.
=86-	=86-	=86-	=86-	=86-	=86-	=86-	=86-
.	.	2r	.	2c/	-ſe-	.	.
*	*	*custos:c	*	*	*	*	*
!	!	!LO:TX:t=P:problem=kreska pseudotaktowa	!	!LO:TX:t=P:problem=kreska pseudotaktowa	!	!	!
.	.	2G/	mi-	2c/	-re-	.	.
*	*	*xywh-#403:999,2751,4283,866	*	*	*	*	*
!	!	!LO:LB:g=original	!	!	!	!	!
0r	.	2c\	-ſe-	2.A/	-re	.	.
!	!	!LO:TX:t=P:problem=kreska pseudotaktowa	!	!	!	!	!
.	.	2c\	-re-	.	.	.	.
!	!	!	!	!LO:TX:t=P:problem=kreska pseudotaktowa	!	!	!
.	.	.	.	4B-/	.	.	.
=87-	=87-	=87-	=87-	=87-	=87-	=87-	=87-
.	.	2A/	-re	2c/	.	0r	.
.	.	1B-\	no-	2.d\	.	.	.
1r	.	.	.	.	.	.	.
.	.	.	.	4c/	no-	.	.
!	!	!LO:TX:t=P:problem=kreska pseudotaktowa	!	!LO:TX:t=P:problem=kreska pseudotaktowa	!	!	!
.	.	2A/	-bis,	2.f\	-bis,	.	.
=88-	=88-	=88-	=88-	=88-	=88-	=88-	=88-
2r	.	1G/	.	.	.	1r	.
.	.	.	.	4e\	.	.	.
!LO:TX:t=P:problem=kreska pseudotaktowa	!	!	!	!	!	!	!
2C/	mi-	.	.	2e\	.	.	.
*custos:F	*	*	*	*	*	*	*
!	!	!LO:TX:t=P:problem=kreska pseudotaktowa	!	!LO:TX:t=P:problem=kreska pseudotaktowa	!	!	!
2F/	-ſe-	1F/	.	1f\	.	2r	.
*xywh-#576:984,1368,4330,851	*	*	*	*	*	*	*
!LO:LB:g=original	!	!	!	!	!	!	!
!LO:TX:t=P:problem=kreska pseudotaktowa	!	!	!	!	!	!LO:TX:t=P:problem=kreska pseudotaktowa	!
2F/	-re-	.	.	.	.	2c/	mi-
=89-	=89-	=89-	=89-	=89-	=89-	=89-	=89-
2.D/	-re	2r	.	1r	.	2f\	-ſe-
.	.	2F/	mi-	.	.	2f\	-re-
4E/	no-	.	.	.	.	.	.
2F/	-bis,	2A/	-ſe-	00r	.	2.d\	-re
!LO:TX:t=P:problem=kreska pseudotaktowa	!	!LO:TX:t=P:problem=kreska pseudotaktowa	!	!	!	!	!
2G\	.	2B-\	-re-	.	.	.	.
*	*	*	*	*	*	*custos:f	*
!	!	!	!	!	!	!LO:TX:t=P:problem=kreska pseudotaktowa	!
.	.	.	.	.	.	4e\	.
!	!	!	!	!	!	!LO:LB:g=original	!
=90-	=90-	=90-	=90-	=90-	=90-	=90-	=90-
*	*	*	*	*	*	*xywh-#17:942,1366,4368,877	*
2A\	.	2c\	-re-	.	.	2f\	.
1B-\	.	1d\	-no-	.	.	2.g\	.
.	.	.	.	.	.	4f\	no-
!LO:TX:t=P:problem=kreska pseudotaktowa	!	!	!	!	!	!	!
2A\	.	1c\	-bis,	.	.	1f\	-bis,
=91-	=91-	=91-	=91-	=91-	=91-	=91-	=91-
1G\	.	.	.	.	.	.	.
!	!	!LO:TX:t=P:problem=kreska pseudotaktowa	!	!	!	!	!
.	.	2B-\	.	.	.	2e\	.
*lig	*	*	*	*col	*	*	*
!	!	!	!	!LO:TX:t=P:problem=znak proporcji tripla + zaczernirnie nut	!	!LO:TX:t=P:problem=kreska pseudotaktowa	!
1.F\	.	1.c\	.	2f\	quo-	1.f\	.
.	.	.	.	2f\	-ni-	.	.
!	!	!	!	!LO:TX:t=P:problem=kreska pseudotaktowa	!	!	!
.	.	.	.	2f\	-a(m)	.	.
=92-	=92-	=92-	=92-	=92-	=92-	=92-	=92-
!LO:TX:t=P:problem=kreska pseudotaktowa	!	!	!	!	!	!	!
*	*	*col	*	*	*	*	*
!	!	!LO:TX:t=P:problem=znak proporcji tripla + zaczernirnie nut	!	!	!	!	!
1.C/	.	2c\	Quo-	1e\	tu	1.r	.
.	.	2c\	-nia(m)	.	.	.	.
.	.	2c\	tu	2e\	ſo-	.	.
!	!	!	!	!LO:TX:t=P:problem=kreska pseudotaktowa	!	!	!
*Xlig	*	*	*	*	*	*col	*
*M3/2	*	*M3/2	*	*M3/2	*	*M3/2	*
!	!	!	!	!	!	!LO:TX:t=P:problem=znak proporcji tripla + zaczernirnie nut	!
1.r	.	1B-\	ſo-	2d\	-lus	2f\	Quo-
*	*	*	*	*custos:c	*	*	*
.	.	.	.	1d\	ſa(n)c-	2f\	-ni-
*	*	*custos:G	*	*	*	*	*
.	.	2B-\	-lus	.	.	2f\	-a(m)
!	!	!	!	!	!	!LO:TX:t=P:problem=kreska pseudotaktowa	!
!	!	!LO:PB:g=original	!	!LO:LB:g=original	!	!	!
*	*	*	*	*Xcol	*	*	*
=92-	=92-	=92-	=92-	=92-	=92-	=92-	=92-
*	*	*xywh-#403:5738,466,4457,962	*	*xywh-#207:5944,1370,4283,862	*	*	*
*col	*	*	*	*	*	*	*
!LO:TX:t=P:problem=znak proporcji tripla + zaczernirnie nut	!	!	!	!LO:TX:t=P:problem=kreska pseudotaktowa	!	!	!
2C/	Quo-	1G/	San-	1.c\	-t(us)	1e\	tu
2C/	-ni-	.	.	.	.	.	.
!LO:TX:t=P:problem=kreska pseudotaktowa	!	!	!	!	!	!LO:TX:t=P:problem=kreska pseudotaktowa	!
2C/	-a(m)	2A/	-ctus,	.	.	2e\	ſo-
*	*	*	*	*col	*	*	*
1BB-/	tu	1B-\	tu	2f\	.	2d\	-lus
!	!	!	!	!	!	!LO:TX:t=P:problem=kreska pseudotaktowa	!
.	.	.	.	2f\	.	1d\	ſan-
2BB-/	ſo-	2B-\	ſo-	2f\	.	.	.
!LO:TX:t=P:problem=kreska pseudotaktowa	!	!	!	!LO:TX:t=P:problem=kreska pseudotaktowa	!	!	!
*	*	*	*	*	*	*Xcol	*
=94-	=94-	=94-	=94-	=94-	=94-	=94-	=94-
!	!	!	!	!	!	!LO:TX:t=P:problem=kreska pseudotaktowa	!
1C/	-lus	1G/	-lus	2e\	.	1.c\	-ctus,
!	!	!	!	!LO:TX:t=P:problem=kreska pseudotaktowa	!	!	!
.	.	.	.	1e\	.	.	.
!LO:TX:t=P:problem=kreska pseudotaktowa	!	!	!	!	!	!	!
2C/	ſa(n)-	2G/	do-	.	.	.	.
1D/	-ctus,	1F/	-mi-	1d\	.	2r	.
.	.	.	.	.	.	2r	.
!LO:TX:t=P:problem=kreska pseudotaktowa	!	!	!	!LO:TX:t=P:problem=kreska pseudotaktowa	!	!	!
*	*	*	*	*	*	*col	*
2D/	tu	2F/	-nus,	2B-/	tu	2f\	tu
=95-	=95-	=95-	=95-	=95-	=95-	=95-	=95-
1C/	ſo-	1G/	tu	1c\	ſo-	1e\	.
*custos:G	*	*	*	*	*	*	*
!LO:TX:t=P:problem=kreska pseudotaktowa	!	!	!	!LO:TX:t=P:problem=kreska pseudotaktowa	!	!LO:TX:t=P:problem=kreska pseudotaktowa	!
2C/	-lus	2G/	ſo-	2c/	-lus	2e\	ſo-
*xywh-#576:961,2118,4380,845	*	*	*	*	*	*	*
!LO:LB:g=original	!	!	!	!	!	!	!
1G\	do-	1B-\	-lus	1d\	.	1g\	-lus
*	*	*	*	*	*	*custos:e	*
!LO:TX:t=P:problem=kreska pseudotaktowa	!	!	!	!	!	!LO:TX:t=P:problem=kreska pseudotaktowa	!
2G\	-mi-	2B-\	al-	2d/	do-	2g\	.
*	*	*	*	*	*	*Xcol	*
!	!	!	!	!	!	!LO:LB:g=original	!
=96-	=96-	=96-	=96-	=96-	=96-	=96-	=96-
*	*	*	*	*	*	*xywh-#17:981,2066,4307,943	*
!LO:TX:t=P:problem=kreska pseudotaktowa	!	!	!	!	!	!	!
0.C/	-nus,	1A\	-tiſ-	1c\	-mi-	1.e\	.
.	.	2A/	-si-	2c/	-nus,	.	.
*	*	*Xcol	*	*Xcol	*	*	*
*	*	*	*	*lig	*	*	*
.	.	1.G/	-mus,	1.c\	.	1ryy	.
!	!	!	!	!	!	!LO:TX:t=P:problem=kreska pseudotaktowa	!
.	.	.	.	.	.	2c/	.
=97-	=97-	=97-	=97-	=97-	=97-	=97-	=97-
*	*	*col	*	*	*	*	*
!	!	!	!	!LO:TX:t=P:problem=kreska pseudotaktowa	!	!	!
2r	.	2.F/	.	1A/	.	2.c/	do-
2F/	tu	.	.	.	.	.	.
.	.	8E/L	.	.	.	4d/	-mi-
.	.	8D/J	.	.	.	.	.
!LO:TX:t=P:problem=kreska pseudotaktowa	!	!	!	!	!	!	!
*	*	*	*	*Xlig	*	*	*
!	!	!LO:TX:t=P:problem=kreska pseudotaktowa	!	!	!	!LO:TX:t=P:problem=kreska pseudotaktowa	!
2E/	ſo-	1C/	.	2r	.	1e\	-nus,
2C/	-lus	.	.	2c/	tu	.	.
!LO:TX:t=P:problem=kreska pseudotaktowa	!	!	!	!LO:TX:t=P:problem=kreska pseudotaktowa	!	!	!
*	*	*Xcol	*	*	*	*	*
=98-	=98-	=98-	=98-	=98-	=98-	=98-	=98-
2.G\	al-	0r	.	2B-/	ſo-	2r	.
.	.	.	.	2G/	-lus	2g\	tu
8F/L	-tiſ-	.	.	.	.	.	.
8E/J	.	.	.	.	.	.	.
2D/	-si-	.	.	2A/	al-	2f\	ſo-
*	*	*	*	*custos:c	*	*	*
!LO:TX:t=P:problem=kreska pseudotaktowa	!	!	!	!LO:TX:t=P:problem=kreska pseudotaktowa	!	!LO:TX:t=P:problem=kreska pseudotaktowa	!
2D/	-mus	.	.	2B-/	-tiſ-	2d\	-lus
!	!	!	!	!LO:LB:g=original	!	!	!
=99-	=99-	=99-	=99-	=99-	=99-	=99-	=99-
*	*	*	*	*xywh-#207:5966,2130,4289,856	*	*	*
2C/	.	1r	.	2.c/	-ſi-	2e\	al-
2F/	.	.	.	.	.	2f\	-tiſ-
.	.	.	.	8B-/L	-mus	.	.
.	.	.	.	8A/J	.	.	.
!	!	!	!	!LO:TX:t=P:problem=kreska pseudotaktowa	!	!	!
2E/	.	2r	.	2G/	.	2.g\	-vi-
!LO:TX:t=P:problem=kreska pseudotaktowa	!	!LO:TX:t=P:problem=kreska pseudotaktowa	!	!	!	!	!
2C/	Ie-	2c\	tu	2.G/	Ie-	.	.
.	.	.	.	.	.	8f\L	-mus
.	.	.	.	.	.	8e\J	.
=100-	=100-	=100-	=100-	=100-	=100-	=100-	=100-
*	*	*custos:G	*	*	*	*	*
!	!	!	!	!	!	!LO:TX:t=P:problem=kreska pseudotaktowa	!
2.G\	-ſu	2B-\	ſo-	.	.	2d\	.
.	.	.	.	4A/	-ſu	.	.
*	*	*xywh-#403:5755,1310,4221,838	*	*	*	*	*
!	!	!LO:LB:g=original	!	!	!	!	!
!	!	!LO:TX:t=P:problem=kreska pseudotaktowa	!	!	!	!	!
.	.	2G/	-lus	4B-/	Chri-	2g\	Ie-
8F/L	.	.	.	4c/	.	.	.
8E/J	.	.	.	.	.	.	.
!LO:TX:t=P:problem=kreska pseudotaktowa	!	!	!	!LO:TX:t=P:problem=kreska pseudotaktowa	!	!	!
1D/	Chri-	2A/	al-	1d\	-ſte,	2f\	-ſu
!	!	!	!	!	!	!LO:TX:t=P:problem=kreska pseudotaktowa	!
.	.	2B-\	-tiſ-	.	.	2d/	Chri-
=101-	=101-	=101-	=101-	=101-	=101-	=101-	=101-
*	*	*	*	*	*	*custos:c	*
0C/	-ſte,	2.c\	-si-	1G/	.	2e\	-ſte-
*	*	*	*	*	*	*xywh-#17:1020,2765,4263,1060	*
!	!	!	!	!	!	!LO:LB:g=original	!
.	.	.	.	.	.	4c/	.
!	!	!	!	!	!	!LO:TX:t=P:problem=kreska pseudotaktowa	!
.	.	8B-\L	-mus,	.	.	4d/	.
!	!	!LO:TX:t=P:problem=kreska pseudotaktowa	!	!	!	!	!
.	.	8A\J	.	.	.	.	.
.	.	2G/	Ie-	1c\	.	4e\	.
.	.	.	.	.	.	4f\	.
.	.	2E/	-ſu-	.	.	2.g\	.
=102-	=102-	=102-	=102-	=102-	=102-	=102-	=102-
1D/	.	1F/	-Chri-	2A/	.	.	.
.	.	.	.	.	.	4f\	.
!	!	!	!	!LO:TX:t=P:problem=kreska pseudotaktowa	!	!	!
.	.	.	.	2B-/	.	2.f\	-Chri-
*custos:F	*	*	*	*	*	*	*
!LO:TX:t=P:problem=kreska pseudotaktowa	!	!	!	!	!	!	!
1C/	.	1G/	-ſte;	1c\	.	.	.
.	.	.	.	.	.	4e\	.
.	.	.	.	.	.	2e\	-ſte,
!LO:LB:g=original	!	!	!	!	!	!	!
=103-	=103-	=103-	=103-	=103-	=103-	=103-	=103-
*xywh-#576:972,2841,4352,952	*	*	*	*	*	*	*
*M3/1	*	*M3/1	*	*M3/1	*	*M3/1	*
0F\	cum	1.F/	.	0c\	Cum	0f\	.
.	.	2E/	.	.	.	.	.
!LO:TX:t=P:problem=kreska pseudotaktowa	!	!	!	!LO:TX:t=P:problem=kreska pseudotaktowa	!	!LO:TX:t=P:problem=kreska pseudotaktowa	!
1BB-/	ſan-	2F/	.	1d\	ſan-	1r	.
!	!	!LO:TX:t=P:problem=kreska pseudotaktowa	!	!	!	!	!
.	.	2G/	.	.	.	.	.
=104-	=104-	=104-	=104-	=104-	=104-	=104-	=104-
1.F\	-cto	0A\	.	1.f\	-cto	0c\	Cum
2E/	.	.	.	2f\	ſp(i-	.	.
!	!	!LO:TX:t=P:problem=kreska pseudotaktowa	!	!LO:TX:t=P:problem=kreska pseudotaktowa	!	!	!
2D/	ſpi-	1r	.	1f\	-ri-	1d\	ſa(n)-
!LO:TX:t=P:problem=kreska pseudotaktowa	!	!	!	!	!	!	!
2C/	-ri-	.	.	.	.	.	.
=105-	=105-	=105-	=105-	=105-	=105-	=105-	=105-
!LO:TX:t=P:problem=kreska pseudotaktowa	!	!	!	!	!	!	!
0BB-/	-tu,	0F/	Cum	0d\	-t)u	1.f\	-cto
.	.	.	.	.	.	2d\	ſp(i-
*	*	*custos:B-	*	*	*	*	*
!	!	!LO:TX:t=P:problem=kreska pseudotaktowa	!	!LO:TX:t=P:problem=kreska pseudotaktowa	!	!LO:TX:t=P:problem=kreska pseudotaktowa	!
1r	.	1G/	ſan-	00.r	.	1e\	-ri-
!	!	!LO:LB:g=original	!	!	!	!	!
=106-	=106-	=106-	=106-	=106-	=106-	=106-	=106-
*	*	*xywh-#403:5749,2076,4244,866	*	*	*	*	*
0BB-/	cum	1.B-\	-cto	.	.	0d\	-t)u,
.	.	2G/	ſpi-	.	.	.	.
!	!	!LO:TX:t=P:problem=kreska pseudotaktowa	!	!	!	!	!
1C/	ſa(n)-	1A\	-ri-	.	.	1r	.
=107-	=107-	=107-	=107-	=107-	=107-	=107-	=107-
1.E-X/	-cto	1.G/	-tu,	.	.	1g\	in
.	.	.	.	.	.	1g\	glo-
2C/	ſpi-	2E/	.	.	.	.	.
*	*	*	*	*	*	*custos:e	*
!LO:TX:t=P:problem=kreska pseudotaktowa	!	!LO:TX:t=P:problem=kreska pseudotaktowa	!	!	!	!LO:TX:t=P:problem=kreska pseudotaktowa	!
1D/	-ri-	1F/	.	1r	.	1f\	-ri-
!	!	!	!	!	!	!LO:PB:g=original	!
=108-	=108-	=108-	=108-	=108-	=108-	=108-	=108-
*	*	*	*	*	*	*xywh-#17:5689,661,4402,982	*
*	*	*	*	*custos:c	*	*	*
!	!	!	!	!LO:TX:t=P:problem=kreska pseudotaktowa	!	!	!
0C/	-tu,	0G/	.	1c\	in	0e\	-a
*	*	*	*	*xywh-#207:5961,2788,4391,992	*	*	*
!	!	!	!	!LO:LB:g=original	!	!	!
.	.	.	.	1c\	glo-	.	.
!LO:TX:t=P:problem=kreska pseudotaktowa	!	!LO:TX:t=P:problem=kreska pseudotaktowa	!	!LO:TX:t=P:problem=kreska pseudotaktowa	!	!LO:TX:t=P:problem=kreska pseudotaktowa	!
1r	.	1r	.	1B-/	-ri-	1d\	de-
=109-	=109-	=109-	=109-	=109-	=109-	=109-	=109-
1%3r	.	1c\	in	0A/	-a	1.e\	-i
.	.	1c\	glo-	.	.	.	.
.	.	.	.	.	.	2c/	pa-
!	!	!LO:TX:t=P:problem=kreska pseudotaktowa	!	!LO:TX:t=P:problem=kreska pseudotaktowa	!	!	!
.	.	1B-\	-ri-	1G/	de-	2d/	-tris,
!	!	!	!	!	!	!LO:TX:t=P:problem=kreska pseudotaktowa	!
.	.	.	.	.	.	2e/	.
=110-	=110-	=110-	=110-	=110-	=110-	=110-	=110-
1F\	in	0A\	-a	2F/	-i	0f\	.
.	.	.	.	2G/	pa-	.	.
1F\	glo-	.	.	2A/	-tris,	.	.
.	.	.	.	2B-/	.	.	.
!LO:TX:t=P:problem=kreska pseudotaktowa	!	!LO:TX:t=P:problem=kreska pseudotaktowa	!	!LO:TX:t=P:problem=kreska pseudotaktowa	!	!LO:TX:t=P:problem=kreska pseudotaktowa	!
1Eny/	-ri-	1G/	.	1c\	.	1r	.
=111-	=111-	=111-	=111-	=111-	=111-	=111-	=111-
0D/	-a	1.F/	de-	0d\	.	1f\	A-
.	.	.	.	.	.	1f\	-men
.	.	2G/	-i	.	.	.	.
*custos:B-	*	*	*	*	*	*	*
*	*	*custos:B-	*	*	*	*	*
!LO:TX:t=P:problem=kreska pseudotaktowa	!	!	!	!LO:TX:t=P:problem=kreska pseudotaktowa	!	!LO:TX:t=P:problem=kreska pseudotaktowa	!
1C/	de-	1A\	.	1r	.	1e\	.
!LO:PB:g=original	!	!LO:LB:g=original	!	!	!	!	!
=112-	=112-	=112-	=112-	=112-	=112-	=112-	=112-
*xywh-#576:5628,656,4352,857	*	*xywh-#403:5761,2824,4159,827	*	*	*	*	*
*	*	*	*	*	*ij	*	*
0BB-/	-i	1.B-\	pa-	1f\	in	0d\	.
.	.	.	.	1f\	glo-	.	.
.	.	2A/	-tris	.	.	.	.
!LO:TX:t=P:problem=kreska pseudotaktowa	!	!LO:TX:t=P:problem=kreska pseudotaktowa	!	!LO:TX:t=P:problem=kreska pseudotaktowa	!	!LO:TX:t=P:problem=kreska pseudotaktowa	!
1C/	pa-	[y1G/	.	1e\	-ri-	1c\	.
=113-	=113-	=113-	=113-	=113-	=113-	=113-	=113-
!	!	!LO:N:xstem:cue	!	!	!	!	!
1.G\	-tris	2G/]	.	1d\	-a	0B-/	.
.	.	2F/	.	.	.	.	.
.	.	2E/	.	1.g\	de-	.	.
2F/	.	2D/	.	.	.	.	.
!	!	!LO:TX:t=P:problem=kreska pseudotaktowa	!	!	!	!	!
2E/	.	1C/	.	.	.	1.c\	.
!LO:TX:t=P:problem=kreska pseudotaktowa	!	!	!	!LO:TX:t=P:problem=kreska pseudotaktowa	!	!	!
2D/	.	.	.	2f\	.	.	.
=114-	=114-	=114-	=114-	=114-	=114-	=114-	=114-
0C/	A-	1.c\	A-	2e\	-i	.	.
.	.	.	.	2d\	.	2B-/	.
.	.	.	.	1.c\	pa-	2A/	.
.	.	2B-\	-men	.	.	2G/	.
*	*	*	*	*	*	*custos:f	*
!	!	!	!	!	!	!LO:TX:t=P:problem=kreska pseudotaktowa	!
1.F\	-me(n).	2A/	.	.	.	1F/	.
!	!	!LO:TX:t=P:problem=kreska pseudotaktowa	!	!LO:TX:t=P:problem=kreska pseudotaktowa	!	!	!
.	.	2G/	.	2B-/	.	.	.
!	!	!	!	!	!	!LO:LB:g=original	!
=115-	=115-	=115-	=115-	=115-	=115-	=115-	=115-
*	*	*	*	*	*	*xywh-#17:5622,1516,2586,860	*
*	*	*lig	*	*	*	*	*
.	.	1A\	.	1c\	-tris	1.f\	A-
*	*	*	*	*	*Xij	*	*
2E/	.	.	.	.	.	.	.
2D/	.	1.B-\	.	0d\	A-	.	.
2C/	.	.	.	.	.	2e\	-men
1BB-/	A-	.	.	.	.	2d\	.
!LO:TX:t=P:problem=kreska pseudotaktowa	!	!	!	!	!	!	!
*	*	*Xlig	*	*	*	*	*
!	!	!LO:TX:t=P:problem=kreska pseudotaktowa	!	!	!	!LO:TX:t=P:problem=kreska pseudotaktowa	!
.	.	2A/	.	.	.	2c\	.
=116-	=116-	=116-	=116-	=116-	=116-	=116-	=116-
1D/	-men	2G/	.	1B-/	.	1.f\	.
.	.	2F/	.	.	.	.	.
0C/	.	0G/	.	0c\	-men	.	.
.	.	.	.	.	.	2e\	.
.	.	.	.	.	.	1e\	.
=117-	=117-	=117-	=117-	=117-	=117-	=117-	=117-
0.lF\	.	0.Fl/;	.	0.Al\;<	.	0.fl\;<	.
==	==	==	==	==	==	==	==
*-	*-	*-	*-	*-	*-	*-	*-
!!!system-decoration: s1,s2,s3,s4
!!!RDF**kern: l = terminal long
!!!RDF**kern: > = above
!!!RDF**kern: < = below
!!!ENC: Mateusz Solarz
!!!END: 2022-01-18
!!!ENC: Leszek Kubiak
!!!END: 2022-02-11
!!!ENC-iiif: Antoni Szymański
!!!END-iiif: 2022-09-01
!!!YEC: Copyright 2022 Narodowy Instytut Fryderyka Chopina (https://polishscores.org)
!!!YEM: License CC-BY-4.0 (https://creativecommons.org/licenses/by/4.0)
